public/svg-icons/telefon-icon.svg

<svg viewBox="0 0 35 33.46" xmlns="http://www.w3.org/2000/svg"><path d="m32 9.66a5.93 5.93 0 0 1 0 10.34z"/><path d="m.89 9.18h7.38a32.31 32.31 0 0 0 22.23-9.12.23.23 0 0 1 .27 0v29.66a.23.23 0 0 1 -.16-.06 32.34 32.34 0 0 0 -22.29-8.92h-7.37a.88.88 0 0 1 -.9-.88h-.05v-9.8a.89.89 0 0 1 .89-.88z"/><path d="m8 21.88h-4.59l.85 10.66a.83.83 0 0 0 .67.71 15.18 15.18 0 0 0 3.65.17 2.8 2.8 0 0 0 1.42-.23 1 1 0 0 0 .4-1z"/></svg>

<svg id="Ebene_1" data-name="Ebene 1" xmlns="http://www.w3.org/2000/svg" viewBox="0 0 35 33.46"><title>telefon-icon</title><g id="Gruppe_83" data-name="Gruppe 83"><g id="Gruppe_82" data-name="Gruppe 82"><g id="Gruppe_81" data-name="Gruppe 81"><g id="Gruppe_78" data-name="Gruppe 78"><path id="Pfad_51" data-name="Pfad 51" d="M32,9.66A5.93,5.93,0,0,1,32,20Z"/></g><g id="Gruppe_79" data-name="Gruppe 79"><path id="Pfad_52" data-name="Pfad 52" d="M.89,9.18l7.38,0h0A32.31,32.31,0,0,0,30.5.06a.23.23,0,0,1,.27,0V29.72a.23.23,0,0,1-.16-.06A32.34,32.34,0,0,0,8.32,20.74h0l-7.37,0a.88.88,0,0,1-.9-.88H0l0-9.8A.89.89,0,0,1,.89,9.18Z"/></g><g id="Gruppe_80" data-name="Gruppe 80"><path id="Pfad_53" data-name="Pfad 53" d="M8,21.88H3.41l.85,10.66a.83.83,0,0,0,.67.71,15.18,15.18,0,0,0,3.65.17A2.8,2.8,0,0,0,10,33.19a1,1,0,0,0,.4-1Z"/></g></g></g></g></svg>
